public/images/hashed/b3b512e8a4d7d09a34f0786b8b5dd6af.svg

<?xml version="1.0" encoding="UTF-8"?>
<svg width="80px" height="80px" viewBox="0 0 80 80" version="1.1" xmlns="http://www.w3.org/2000/svg" xmlns:xlink="http://www.w3.org/1999/xlink">
    <!-- Generator: Sketch 64 (93537) - https://sketch.com -->
    <title>Icon-Architecture/64/Arch_AWS-CloudMap_64</title>
    <desc>Created with Sketch.</desc>
    <defs>
        <linearGradient x1="0%" y1="100%" x2="100%" y2="0%" id="linearGradient-1">
            <stop stop-color="#4D27A8" offset="0%"></stop>
            <stop stop-color="#A166FF" offset="100%"></stop>
        </linearGradient>
    </defs>
    <g id="Icon-Architecture/64/Arch_AWS-CloudMap_64" stroke="none" stroke-width="1" fill="none" fill-rule="evenodd">
        <g id="Icon-Architecture-BG/64/Networking-Content-Delivery" fill="url(#linearGradient-1)">
            <rect id="Rectangle" x="0" y="0" width="80" height="80"></rect>
        </g>
        <path d="M37.9288109,48.8828856 L43.0031679,48.8828856 L43.0031679,43.8243284 L37.9288109,43.8243284 L37.9288109,48.8828856 Z M44.0030411,41.8009055 L36.9289377,41.8009055 C36.3760077,41.8009055 35.9290644,42.2541523 35.9290644,42.812617 L35.9290644,49.8945971 C35.9290644,50.4530618 36.3760077,50.9063085 36.9289377,50.9063085 L44.0030411,50.9063085 C44.5559711,50.9063085 45.0029144,50.4530618 45.0029144,49.8945971 L45.0029144,42.812617 C45.0029144,42.2541523 44.5559711,41.8009055 44.0030411,41.8009055 L44.0030411,41.8009055 Z M57.9292763,56.9765771 L50.0022809,56.9684834 L50.0022809,45.8477513 L65.8052781,45.8477513 C65.9292624,46.4689421 66.0002534,47.1397068 66.0002534,47.8711742 C66.0002534,55.7827576 58.6461854,56.8885582 57.9292763,56.9765771 L57.9292763,56.9765771 Z M21.8098537,56.6760988 L31.0046884,48.1473714 L31.0046884,56.9482492 L23.0496966,56.9391438 C22.6267502,56.8774294 22.2158023,56.784352 21.8098537,56.6760988 L21.8098537,56.6760988 Z M14.0018432,47.535286 L14.0068426,47.2621239 C14.0068426,42.7205512 16.0695812,39.8634781 20.1340661,38.7657712 L31.0046884,38.7657712 L31.0046884,40.3298771 L16.3515454,53.3040646 C14.9967171,51.7510875 14.1308269,49.8409763 14.0048428,47.8064246 C13.9968438,47.6840076 13.9998435,47.6182463 14.0018432,47.535286 L14.0018432,47.535286 Z M28.8249647,24.0524518 C29.5428737,23.7438798 30.2727812,23.515233 31.0046884,23.3472889 L31.0046884,30.6720797 L22.2947922,30.6720797 C23.6956147,27.7735265 26.0973103,25.2209785 28.8249647,24.0524518 L28.8249647,24.0524518 Z M38.0038014,53.9414428 L43.0031679,53.9414428 L43.0031679,56.9603897 L38.0038014,56.9553312 L38.0038014,53.9414428 Z M60.3289722,37.3240824 L59.6730553,39.2362171 C61.3508427,39.8260448 63.8295285,41.126094 65.1293638,43.8243284 L49.0024076,43.8243284 C48.4504775,43.8243284 48.0025343,44.2775752 48.0025343,44.8360399 L48.0025343,56.96646 L45.0029144,56.9624132 L45.0029144,52.9297314 C45.0029144,52.3712667 44.5559711,51.9180199 44.0030411,51.9180199 L37.0039281,51.9180199 C36.4519981,51.9180199 36.0040549,52.3712667 36.0040549,52.9297314 L36.0040549,56.9533078 L33.004435,56.9502726 L33.004435,45.8477513 C33.004435,45.4471136 32.7704647,45.0828975 32.4075107,44.9210236 C32.0455565,44.7611732 31.6216103,44.8299696 31.3286474,45.10212 L19.7021208,55.8859522 C19.0292061,55.550064 18.4012857,55.1463911 17.8203593,54.6921327 L32.6624783,41.5500011 C32.8804507,41.3587877 33.004435,41.0815787 33.004435,40.7891941 L33.004435,37.7540598 C33.004435,37.1955951 32.5574916,36.7423484 32.0045617,36.7423484 L20.9859581,36.7423484 C20.9889577,36.6634349 20.9889577,36.5885682 20.9919574,36.5096547 C20.9989565,36.2880899 21.0059556,36.070572 21.0059556,35.8702531 C21.0059556,34.8281903 21.1899323,33.7547645 21.507892,32.6955026 L32.0045617,32.6955026 C32.5574916,32.6955026 33.004435,32.2422559 33.004435,31.6837912 L33.004435,23.062998 C34.0103075,23.0043187 35.0141803,23.0731151 36.0040549,23.266352 L36.0040549,39.7774827 C36.0040549,40.3359474 36.4519981,40.7891941 37.0039281,40.7891941 L44.0030411,40.7891941 C44.5559711,40.7891941 45.0029144,40.3359474 45.0029144,39.7774827 L45.0029144,33.707214 L43.0031679,33.707214 L43.0031679,38.7657712 L38.0038014,38.7657712 L38.0038014,23.8318987 C39.8945618,24.5411084 41.6943337,25.713682 43.2951309,27.3395023 L44.7109514,25.9109657 C39.9975488,21.1265823 33.7673383,19.7364908 28.0450635,22.1888793 C22.9767058,24.3610238 19.006209,30.3705897 19.006209,35.8702531 C19.006209,36.0483143 18.9992099,36.2425629 18.9932107,36.4408583 C18.9872114,36.6249898 18.9802123,36.8131682 18.9782126,36.9993231 C16.0695812,37.9604489 12.007096,40.5109735 12.007096,47.2621239 L12.0030965,47.4725599 C11.999097,47.6152112 11.9970973,47.7275112 12.0090958,47.9339003 C12.3480528,53.4022006 17.0054626,58.1390336 22.8427228,58.9534613 C22.8877171,58.9595315 22.9337113,58.9625667 22.9787056,58.9625667 L36.894942,58.9777423 C36.9319373,58.9817892 36.9649331,59 37.0039281,59 L44.0030411,59 C44.0290379,59 44.0500352,58.9868478 44.0760319,58.9848243 L57.9852692,59 L57.986269,59 C58.0202647,59 58.0532606,58.9979766 58.0872562,58.9949414 C58.1862437,58.9848243 68,57.8567661 68,47.8711742 C68,40.7851473 62.6356798,38.1344633 60.3289722,37.3240824 L60.3289722,37.3240824 Z M51.0021541,29.6603683 C51.0021541,28.6577623 52.0120262,27.6369454 53.0019007,27.6369454 C53.9917753,27.6369454 55.0016473,28.6577623 55.0016473,29.6603683 C55.0016473,30.6629743 53.9917753,31.6837912 53.0019007,31.6837912 C52.0120262,31.6837912 51.0021541,30.6629743 51.0021541,29.6603683 L51.0021541,29.6603683 Z M57.0013939,29.6603683 C57.0013939,27.5428562 55.0956354,25.6135225 53.0019007,25.6135225 C50.9081661,25.6135225 49.0024076,27.5428562 49.0024076,29.6603683 C49.0024076,31.7778803 50.9081661,33.707214 53.0019007,33.707214 C55.0956354,33.707214 57.0013939,31.7778803 57.0013939,29.6603683 L57.0013939,29.6603683 Z M53.0019007,24.6018111 C55.8525395,24.6018111 58.0012671,26.775979 58.0012671,29.6603683 C58.0012671,31.8699461 54.9026598,37.0843068 53.0019007,39.9970241 C51.1021415,37.0853185 48.0025343,31.8719695 48.0025343,29.6603683 C48.0025343,26.775979 50.1522619,24.6018111 53.0019007,24.6018111 L53.0019007,24.6018111 Z M53.0019007,42.812617 C53.3278594,42.812617 53.6348205,42.6507432 53.8217968,42.3806162 C54.4537167,41.4650174 60.0010137,33.328834 60.0010137,29.6603683 C60.0010137,25.6226279 56.9913951,22.5783882 53.0019007,22.5783882 C49.0124063,22.5783882 46.0027877,25.6226279 46.0027877,29.6603683 C46.0027877,33.328834 51.5500847,41.4650174 52.1830045,42.3806162 C52.3689809,42.6507432 52.675942,42.812617 53.0019007,42.812617 L53.0019007,42.812617 Z" id="AWS-CloudMap_Icon_64_Squid" fill="#FFFFFF"></path>
    </g>
</svg>

<svg xmlns="http://www.w3.org/2000/svg" width="80" height="80"><defs><linearGradient id="a" x1="0%" x2="100%" y1="100%" y2="0%"><stop offset="0%" stop-color="#4D27A8"/><stop offset="100%" stop-color="#A166FF"/></linearGradient></defs><g fill="none" fill-rule="evenodd"><path fill="url(#a)" d="M0 0h80v80H0z"/><path fill="#FFF" d="M37.929 48.883h5.074v-5.059H37.93v5.059Zm6.074-7.082h-7.074c-.553 0-1 .453-1 1.012v7.082c0 .558.447 1.011 1 1.011h7.074c.553 0 1-.453 1-1.011v-7.082c0-.559-.447-1.012-1-1.012Zm13.926 15.176-7.927-.009v-11.12h15.803c.124.62.195 1.292.195 2.023 0 7.912-7.354 9.018-8.07 9.106Zm-36.12-.3 9.196-8.53v8.801l-7.955-.009a10.925 10.925 0 0 1-1.24-.263Zm-7.807-9.142.005-.273c0-4.541 2.063-7.399 6.127-8.496h10.87v1.564L16.353 53.304c-1.355-1.553-2.221-3.463-2.347-5.498-.008-.122-.005-.188-.003-.27Zm14.823-23.483a12.692 12.692 0 0 1 2.18-.705v7.325h-8.71c1.4-2.898 3.802-5.451 6.53-6.62Zm9.179 29.89h5v3.018l-5-.005v-3.014Zm22.325-16.618-.656 1.912c1.678.59 4.157 1.89 5.456 4.588H49.002c-.552 0-1 .454-1 1.012v12.13l-3-.004V52.93c0-.559-.446-1.012-.999-1.012h-7c-.551 0-.999.453-.999 1.012v4.023l-3-.003V45.848c0-.4-.234-.765-.596-.927a.994.994 0 0 0-1.08.181L19.703 55.886a11.12 11.12 0 0 1-1.882-1.194L32.662 41.55a1.01 1.01 0 0 0 .342-.76v-3.036c0-.558-.447-1.012-1-1.012H20.987l.006-.232c.007-.222.014-.44.014-.64 0-1.042.184-2.115.502-3.174h10.497c.552 0 1-.454 1-1.012v-8.621c1.005-.059 2.01.01 3 .203v16.511c0 .559.447 1.012.999 1.012h6.999c.553 0 1-.453 1-1.012v-6.07h-2v5.059h-5V23.832c1.892.71 3.691 1.882 5.292 3.508l1.416-1.429c-4.713-4.784-10.944-6.175-16.666-3.722-5.068 2.172-9.039 8.182-9.039 13.681 0 .178-.007.373-.013.57-.006.185-.013.373-.015.56-2.908.96-6.97 3.511-6.97 10.262l-.005.21a4.63 4.63 0 0 0 .006.462c.34 5.468 4.996 10.205 10.834 11.02.045.006.09.009.136.009l13.916.015c.037.004.07.022.109.022h6.999c.026 0 .047-.013.073-.015l13.91.015c.034 0 .067-.002.101-.005.1-.01 9.913-1.138 9.913-11.124 0-7.086-5.364-9.737-7.671-10.547Zm-9.327-7.664c0-1.002 1.01-2.023 2-2.023s2 1.02 2 2.023c0 1.003-1.01 2.024-2 2.024s-2-1.021-2-2.024Zm6 0c0-2.117-1.906-4.046-4-4.046-2.094 0-4 1.929-4 4.046 0 2.118 1.906 4.047 4 4.047 2.094 0 4-1.93 4-4.047Zm-4-5.058c2.85 0 5 2.174 5 5.058 0 2.21-3.1 7.424-5 10.337-1.9-2.912-5-8.125-5-10.337 0-2.884 2.15-5.058 5-5.058Zm0 18.21a1 1 0 0 0 .82-.431C54.454 41.465 60 33.329 60 29.66c0-4.038-3.01-7.083-7-7.083-3.989 0-6.998 3.045-6.998 7.082 0 3.669 5.547 11.805 6.18 12.72.186.27.493.433.819.433Z"/></g></svg>
